!!!OTL: ES LEBE WAS AUF ERDEN STOLZIERT
!!!ARE: Europa, Mitteleuropa, Deutschland
!!!SCT: B0591
!!!YEM: Copyright 1995, estate of Helmut Schaffrath.
**kern
*ICvox
*Ivox
*M6/8
*k[]
*C:
{8G
=1
4E
8G
4G
8c
=2
4.c
4G}
{8G
=3
4c
8c
8c
8B
8c
=4
2d
8r}
{8d
=5
8d
8B
8d
8d
8B
8d
=6
4.d
4G}
{8G
=7
4e
8e
8d
8e
8d
=8
2c
8r}
{8c
=9
4c
8c
8c
8B
8A
=10
4.A
4B}
{8B
=11
8d
8c
8A
8d
8c
8A
=12
2B
8r}
{8B
=13
4c
8c
8c
8B
8A
=14
4.A
4B}
{8B
=15
4d
8G
8A
8B
8A
=16
4G
4.r}
==
!!!AGN: Staende -, Jaeger - Lied
!!!ONB: ESAC (Essen Associative Code) Database: BOEHME
!!!AMT: compound duple
!!!AIN: vox
!!!EED: Helmut Schaffrath
!!!EEV: 1.0
*-
